Numix/16/status/indicator-keyboard-Pl-5.svg

<?xml version="1.0" encoding="UTF-8" standalone="no"?>
<svg
   xmlns:dc="http://purl.org/dc/elements/1.1/"
   xmlns:cc="http://creativecommons.org/ns#"
   xmlns:rdf="http://www.w3.org/1999/02/22-rdf-syntax-ns#"
   xmlns:svg="http://www.w3.org/2000/svg"
   xmlns="http://www.w3.org/2000/svg"
   xmlns:sodipodi="http://sodipodi.sourceforge.net/DTD/sodipodi-0.dtd"
   xmlns:inkscape="http://www.inkscape.org/namespaces/inkscape"
   viewBox="0 0 16 16"
   id="svg2"
   version="1.1"
   inkscape:version="0.91 r13725"
   sodipodi:docname="indicator-keyboard-Pl-5.svg">
  <metadata
     id="metadata14">
    <rdf:RDF>
      <cc:Work
         rdf:about="">
        <dc:format>image/svg+xml</dc:format>
        <dc:type
           rdf:resource="http://purl.org/dc/dcmitype/StillImage" />
      </cc:Work>
    </rdf:RDF>
  </metadata>
  <defs
     id="defs12" />
  <sodipodi:namedview
     pagecolor="#ffffff"
     bordercolor="#666666"
     borderopacity="1"
     objecttolerance="10"
     gridtolerance="10"
     guidetolerance="10"
     inkscape:pageopacity="0"
     inkscape:pageshadow="2"
     inkscape:window-width="640"
     inkscape:window-height="480"
     id="namedview10"
     showgrid="false"
     inkscape:zoom="14.75"
     inkscape:cx="8"
     inkscape:cy="8"
     inkscape:window-x="65"
     inkscape:window-y="24"
     inkscape:window-maximized="0"
     inkscape:current-layer="svg2" />
  <path
     style="fill:#ececec;fill-opacity:1"
     d="M 1.5996094 0 C 0.71320937 2.9605947e-16 0 0.71320937 0 1.5996094 L 0 14.400391 C 2.9605947e-16 15.286791 0.71320937 16 1.5996094 16 L 14.400391 16 C 15.286791 16 16 15.286791 16 14.400391 L 16 1.5996094 C 16 0.71320937 15.286791 0 14.400391 0 L 1.5996094 0 z M 9.0429688 4.1113281 L 9.0429688 9.9628906 C 9.0429688 10.106891 9.0560781 10.2225 9.0800781 10.3125 C 9.1100781 10.3965 9.1510781 10.465531 9.2050781 10.519531 C 9.2590781 10.567531 9.3281094 10.604906 9.4121094 10.628906 C 9.5021094 10.652906 9.6085156 10.673406 9.7285156 10.691406 L 9.6464844 11.177734 C 9.4484844 11.171734 9.275 11.143703 9.125 11.095703 C 8.981 11.053703 8.8578594 10.988438 8.7558594 10.898438 C 8.6598594 10.802438 8.58525 10.681109 8.53125 10.537109 C 8.48325 10.387109 8.4589844 10.202469 8.4589844 9.9804688 L 8.4589844 4.2207031 L 9.0429688 4.1113281 z M 4.7519531 4.8046875 C 5.6339531 4.8046875 6.2926094 4.9725937 6.7246094 5.3085938 C 7.1566094 5.6445937 7.3710938 6.1222344 7.3710938 6.7402344 C 7.3710938 7.0942344 7.3095938 7.3964375 7.1835938 7.6484375 C 7.0575938 7.8944375 6.8765781 8.0959531 6.6425781 8.2519531 C 6.4085781 8.4019531 6.1212969 8.5139375 5.7792969 8.5859375 C 5.4432969 8.6519375 5.0627188 8.6835937 4.6367188 8.6835938 L 3.7890625 8.6835938 L 3.7890625 11.095703 L 3.1777344 11.095703 L 3.1777344 4.9765625 C 3.3937344 4.9165625 3.6455938 4.8736094 3.9335938 4.8496094 C 4.2275937 4.8196094 4.4999531 4.8046875 4.7519531 4.8046875 z M 4.7792969 5.3359375 C 4.5512969 5.3359375 4.3573125 5.3452813 4.1953125 5.3632812 C 4.0393125 5.3752813 3.9030625 5.3864375 3.7890625 5.3984375 L 3.7890625 8.1523438 L 4.5644531 8.1523438 C 4.8944531 8.1523438 5.1910781 8.1356094 5.4550781 8.0996094 C 5.7250781 8.0576094 5.9526719 7.9848125 6.1386719 7.8828125 C 6.3306719 7.7748125 6.4780781 7.6274062 6.5800781 7.4414062 C 6.6820781 7.2554062 6.7324219 7.0184688 6.7324219 6.7304688 C 6.7324219 6.4544687 6.6765 6.226875 6.5625 6.046875 C 6.4545 5.866875 6.3070937 5.7250469 6.1210938 5.6230469 C 5.9410938 5.5150469 5.734 5.4404375 5.5 5.3984375 C 5.266 5.3564375 5.0252969 5.3359375 4.7792969 5.3359375 z M 10.857422 8.8417969 L 12.681641 8.8417969 L 12.681641 9.1757812 L 11.189453 9.1757812 C 11.18552 9.2498812 11.179642 9.3458906 11.171875 9.4628906 C 11.164075 9.5798906 11.156237 9.6994188 11.148438 9.8242188 C 11.140638 9.9451188 11.130841 10.062681 11.119141 10.175781 C 11.107441 10.288881 11.097644 10.379012 11.089844 10.445312 C 11.390144 10.453112 11.650741 10.490341 11.869141 10.556641 C 12.087541 10.622941 12.26585 10.711119 12.40625 10.824219 C 12.54665 10.937319 12.650497 11.074475 12.716797 11.234375 C 12.786997 11.394275 12.822266 11.572578 12.822266 11.767578 C 12.822266 11.939178 12.792875 12.097894 12.734375 12.246094 C 12.679775 12.394294 12.593563 12.523613 12.476562 12.632812 C 12.359563 12.742012 12.212603 12.828225 12.033203 12.890625 C 11.853803 12.953025 11.640231 12.984375 11.394531 12.984375 C 11.269731 12.984375 11.152169 12.974578 11.042969 12.955078 C 10.937669 12.939478 10.843613 12.919884 10.757812 12.896484 C 10.675913 12.873084 10.605375 12.849572 10.546875 12.826172 C 10.488375 12.802772 10.445269 12.783178 10.417969 12.767578 L 10.517578 12.427734 C 10.540978 12.443334 10.580166 12.462928 10.634766 12.486328 C 10.693266 12.509728 10.759884 12.533241 10.833984 12.556641 C 10.911984 12.576141 10.996244 12.593775 11.089844 12.609375 C 11.187344 12.624975 11.289231 12.632812 11.394531 12.632812 C 11.589531 12.632812 11.752159 12.611259 11.880859 12.568359 C 12.013459 12.521559 12.117313 12.458859 12.195312 12.380859 C 12.273313 12.302859 12.328175 12.212728 12.359375 12.111328 C 12.394475 12.006028 12.412109 11.894337 12.412109 11.773438 C 12.412109 11.617437 12.386637 11.476362 12.335938 11.351562 C 12.285238 11.226762 12.197059 11.120956 12.068359 11.035156 C 11.939659 10.949356 11.765275 10.884697 11.546875 10.841797 C 11.328475 10.794997 11.052197 10.771484 10.716797 10.771484 C 10.740197 10.572584 10.759791 10.392316 10.775391 10.228516 C 10.790991 10.060816 10.804706 9.9001469 10.816406 9.7480469 C 10.828106 9.5920469 10.835944 9.4431281 10.839844 9.2988281 C 10.847644 9.1506281 10.853522 8.9977969 10.857422 8.8417969 z "
     id="path4" />
</svg>

<svg xmlns="http://www.w3.org/2000/svg" viewBox="0 0 16 16">
 <path d="m 1.6 0 c -0.886 0 -1.6 0.713 -1.6 1.6 l 0 12.801 c 0 0.886 0.713 1.6 1.6 1.6 l 12.801 0 c 0.886 0 1.6 -0.713 1.6 -1.6 l 0 -12.801 c 0 -0.886 -0.713 -1.6 -1.6 -1.6 l -12.801 0 z m 7.443 4.111 l 0 5.852 c 0 0.144 0.013 0.26 0.037 0.35 c 0.03 0.084 0.071 0.153 0.125 0.207 c 0.054 0.048 0.123 0.085 0.207 0.109 c 0.09 0.024 0.196 0.044 0.316 0.063 l -0.082 0.486 c -0.198 -0.006 -0.371 -0.034 -0.521 -0.082 c -0.144 -0.042 -0.267 -0.107 -0.369 -0.197 c -0.096 -0.096 -0.171 -0.217 -0.225 -0.361 c -0.048 -0.15 -0.072 -0.335 -0.072 -0.557 l 0 -5.76 l 0.584 -0.109 z m -4.291 0.693 c 0.882 0 1.541 0.168 1.973 0.504 c 0.432 0.336 0.646 0.814 0.646 1.432 c 0 0.354 -0.061 0.656 -0.188 0.908 c -0.126 0.246 -0.307 0.448 -0.541 0.604 c -0.234 0.15 -0.521 0.262 -0.863 0.334 c -0.336 0.066 -0.717 0.098 -1.143 0.098 l -0.848 0 l 0 2.412 l -0.611 0 l 0 -6.119 c 0.216 -0.06 0.468 -0.103 0.756 -0.127 c 0.294 -0.03 0.566 -0.045 0.818 -0.045 z m 0.027 0.531 c -0.228 0 -0.422 0.009 -0.584 0.027 c -0.156 0.012 -0.292 0.023 -0.406 0.035 l 0 2.754 l 0.775 0 c 0.33 0 0.627 -0.017 0.891 -0.053 c 0.27 -0.042 0.498 -0.115 0.684 -0.217 c 0.192 -0.108 0.339 -0.255 0.441 -0.441 c 0.102 -0.186 0.152 -0.423 0.152 -0.711 c 0 -0.276 -0.056 -0.504 -0.17 -0.684 c -0.108 -0.18 -0.255 -0.322 -0.441 -0.424 c -0.18 -0.108 -0.387 -0.183 -0.621 -0.225 c -0.234 -0.042 -0.475 -0.063 -0.721 -0.063 z m 6.078 3.506 l 1.824 0 l 0 0.334 l -1.492 0 c -0.004 0.074 -0.01 0.17 -0.018 0.287 c -0.008 0.117 -0.016 0.237 -0.023 0.361 c -0.008 0.121 -0.018 0.238 -0.029 0.352 c -0.012 0.113 -0.021 0.203 -0.029 0.27 c 0.3 0.008 0.561 0.045 0.779 0.111 c 0.218 0.066 0.397 0.154 0.537 0.268 c 0.14 0.113 0.244 0.25 0.311 0.41 c 0.07 0.16 0.105 0.338 0.105 0.533 c 0 0.172 -0.029 0.33 -0.088 0.479 c -0.055 0.148 -0.141 0.278 -0.258 0.387 c -0.117 0.109 -0.264 0.195 -0.443 0.258 c -0.179 0.062 -0.393 0.094 -0.639 0.094 c -0.125 0 -0.242 -0.01 -0.352 -0.029 c -0.105 -0.016 -0.199 -0.035 -0.285 -0.059 c -0.082 -0.023 -0.152 -0.047 -0.211 -0.07 c -0.059 -0.023 -0.102 -0.043 -0.129 -0.059 l 0.1 -0.34 c 0.023 0.016 0.063 0.035 0.117 0.059 c 0.058 0.023 0.125 0.047 0.199 0.07 c 0.078 0.019 0.162 0.037 0.256 0.053 c 0.098 0.016 0.199 0.023 0.305 0.023 c 0.195 0 0.358 -0.022 0.486 -0.064 c 0.133 -0.047 0.236 -0.109 0.314 -0.188 c 0.078 -0.078 0.133 -0.168 0.164 -0.27 c 0.035 -0.105 0.053 -0.217 0.053 -0.338 c 0 -0.156 -0.025 -0.297 -0.076 -0.422 c -0.051 -0.125 -0.139 -0.231 -0.268 -0.316 c -0.129 -0.086 -0.303 -0.15 -0.521 -0.193 c -0.218 -0.047 -0.495 -0.07 -0.83 -0.07 c 0.023 -0.199 0.043 -0.379 0.059 -0.543 c 0.016 -0.168 0.029 -0.328 0.041 -0.48 c 0.012 -0.156 0.02 -0.305 0.023 -0.449 c 0.008 -0.148 0.014 -0.301 0.018 -0.457 z" style="fill:#ececec;fill-opacity:1"/>
</svg>
